icons/checklist-24.svg

<svg xmlns="http://www.w3.org/2000/svg" width="24" height="24" viewBox="0 0 24 24"><path d="M3.5 3.75a.25.25 0 01.25-.25h13.5a.25.25 0 01.25.25v10a.75.75 0 001.5 0v-10A1.75 1.75 0 0017.25 2H3.75A1.75 1.75 0 002 3.75v16.5c0 .966.784 1.75 1.75 1.75h7a.75.75 0 000-1.5h-7a.25.25 0 01-.25-.25V3.75z"/><path d="M6.25 7a.75.75 0 000 1.5h8.5a.75.75 0 000-1.5h-8.5zm-.75 4.75a.75.75 0 01.75-.75h4.5a.75.75 0 010 1.5h-4.5a.75.75 0 01-.75-.75zm16.28 4.53a.75.75 0 10-1.06-1.06l-4.97 4.97-1.97-1.97a.75.75 0 10-1.06 1.06l2.5 2.5a.75.75 0 001.06 0l5.5-5.5z"/></svg>

<svg xmlns="http://www.w3.org/2000/svg" width="24" height="24" viewBox="0 0 24 24">
  <defs/>
  <path d="M3.5,3.75 A0.25 0.25 0 0 1 3.75,3.5 L17.25,3.5 A0.25 0.25 0 0 1 17.5,3.75 L17.5,13.75 A0.75 0.75 0 0 0 19,13.75 L19,3.75 A1.75 1.75 0 0 0 17.25,2 L3.75,2 A1.75 1.75 0 0 0 2,3.75 L2,20.25 C2,21.216 2.784,22 3.75,22 L10.75,22 A0.75 0.75 0 0 0 10.75,20.5 L3.75,20.5 A0.25 0.25 0 0 1 3.5,20.25 L3.5,3.75 Z"/>
  <path d="M6.25,7 A0.75 0.75 0 0 0 6.25,8.5 L14.75,8.5 A0.75 0.75 0 0 0 14.75,7 L6.25,7 Z M5.5,11.75 A0.75 0.75 0 0 1 6.25,11 L10.75,11 A0.75 0.75 0 0 1 10.75,12.5 L6.25,12.5 A0.75 0.75 0 0 1 5.5,11.75 Z M21.78,16.28 A0.75 0.75 0 1 0 20.72,15.22 L15.75,20.19 L13.78,18.22 A0.75 0.75 0 1 0 12.72,19.28 L15.22,21.78 A0.75 0.75 0 0 0 16.28,21.78 L21.78,16.28 Z"/>
</svg>
